assets/Left speech bubble/Flat/left_speech_bubble_flat.svg

<svg width="32" height="32" viewBox="0 0 32 32" fill="none" xmlns="http://www.w3.org/2000/svg">
<path d="M16.0278 4C8.16615 4 3.53108 9.75575 1.66714 12.7026C0.772249 14.1175 0.772247 15.8825 1.66714 17.2974C3.53108 20.2442 8.16615 26 16.0278 26C17.2577 26 18.413 25.8582 19.4936 25.6063L23.8434 27.8365C24.8416 28.3483 26.0278 27.6235 26.0278 26.5017V22.3015C28.083 20.6044 29.5201 18.6702 30.3884 17.2974C31.2833 15.8825 31.2833 14.1175 30.3884 12.7026C28.5245 9.75575 23.8894 4 16.0278 4Z" fill="#9B9B9B"/>
<path d="M24.2997 26.9467L19.6172 24.5458C18.5104 24.8344 17.3146 25 16.0278 25C8.70189 25 4.32778 19.6331 2.51227 16.7628C1.82387 15.6744 1.82387 14.3256 2.51228 13.2372C4.32778 10.3669 8.7019 5 16.0278 5C23.3537 5 27.7278 10.3669 29.5433 13.2372C30.2317 14.3256 30.2317 15.6744 29.5433 16.7628C28.6595 18.16 27.1695 20.1489 25.0278 21.8222V26.5017C25.0278 26.8757 24.6324 27.1173 24.2997 26.9467Z" fill="white"/>
</svg>

<svg xmlns="http://www.w3.org/2000/svg" width="32" height="32" fill="none"><path fill="#9B9B9B" d="M16.028 4C8.166 4 3.53 9.756 1.668 12.703a4.268 4.268 0 0 0 0 4.594C3.53 20.244 8.165 26 16.027 26c1.23 0 2.385-.142 3.466-.394l4.35 2.23a1.5 1.5 0 0 0 2.184-1.334v-4.2c2.055-1.698 3.492-3.632 4.36-5.005a4.268 4.268 0 0 0 0-4.594C28.524 9.756 23.89 4 16.028 4Z"/><path fill="#fff" d="m24.3 26.947-4.683-2.401a14.17 14.17 0 0 1-3.59.454c-7.325 0-11.7-5.367-13.515-8.237a3.267 3.267 0 0 1 0-3.526C4.328 10.367 8.702 5 16.028 5s11.7 5.367 13.515 8.237a3.268 3.268 0 0 1 0 3.526c-.883 1.397-2.373 3.386-4.515 5.06v4.679a.5.5 0 0 1-.728.445Z"/></svg>
